X:369
T:Union
Z: id:dc-reel-341
M:C
L:1/8
K:A Major
f|e2cA eAcA|eAcA Bcdf|e2cA eAcA|Bcdc BAFA|!
e2cA eAcA|eAcA Bcdf|efec dcBA|FABc d3|]!
K:D Major
A|dff2 dfef|dff2 afef|dff2 dfec|dcBA FAd:|!

